.icons/Gruvbox-Plus-Light/apps/16/kipi-panorama.svg

<svg width="16" height="16" version="1.1" xmlns="http://www.w3.org/2000/svg">
  <defs>
    <style id="current-color-scheme" type="text/css">.ColorScheme-Text { color:#282828; } .ColorScheme-Highlight { color:#458588; }</style>
  </defs>
  <path class="ColorScheme-Text" d="m16 1.6-2.96 0.882c-3.292 0.959-6.788 0.959-10.08 0l-2.96-0.882v12.8l2.96-0.882c3.28-0.959 6.8-0.959 10.08 0l2.96 0.882v-12.8zm-4.96 8.96c-2.025-0.478-4.133-0.478-6.158 0l-2.482 0.64 3.2-4.482 1.6 2 2.4-3.118 4 5.6-2.56-0.64z" fill="currentColor"/>
</svg>

<svg width="16" height="16" version="1.1" xmlns="http://www.w3.org/2000/svg">
  <defs>
    <style type="text/css" id="current-color-scheme">.ColorScheme-Text { color:#282828; } .ColorScheme-Highlight { color:#458588; }</style>
  </defs>
  <path class="ColorScheme-Text" fill="currentColor" d="M 16 1.6 L 13.04 2.482 C 9.748 3.441 6.252 3.441 2.96 2.482 L 0 1.6 L 0 14.4 L 2.96 13.518 C 6.24 12.559 9.76 12.559 13.04 13.518 L 16 14.4 L 16 1.6 Z M 11.04 10.56 C 9.015 10.082 6.907 10.082 4.882 10.56 L 2.4 11.2 L 5.6 6.718 L 7.2 8.718 L 9.6 5.6 L 13.6 11.2 L 11.04 10.56 Z"/>
</svg>
